X:1
T:Silken Rose
C:Susie Staplehurst
M:4/4
L:1/8
Q:120
K:BbMaj
%
|: "Bb"d2d2 edcd | "F"f2d2 B2c2 | "Gm"B2B2 cBAB | "Dm"d2B2 A2B2 |
"Eb"G2G2 AGFG | "Bb"F2F2 B3A |1 "Cm"G2B2 ABcd | "F"c6 B2 :|2 "Cm"G2B2 "F"ABcd | "Bb"B6 (3efg |
|: "Bb"b3a gaba | f2d2 "Dm"b2a2 | "Eb"e3f gfef | "Gm"dcde "F"g2f2 |
"Bb"B3c dcBA | "Gm"G2AB d3c |1 "Dm"d2f2 efga | "F"f6 d2 :|2 "Cm"B2G2 "F"ABcd | "Bb"B8 |]



